X: 5745
T: Caherlistrane
R: jig
M: 6/8
K: Amajor
AB|:c3 BAF|EAF E3|FEE AEE|FAA B3|
c3 BAF|EAF E3|FEE AEE|FAA A2B:|
|:c3 e3|fec B3|cec BAF|EFA BAB|
c3 ece|fec B3|cec BAF|1 EFA A2B:|2 EFA A3||

